!!!SOCIAL_FUNCTION: hand game and ghost dance songs
!!!PDT:	1929
!!!LING_GROUP: Caddoan
!!!LANG: Non-Tone
!!!REG: Oklahoma
!!!COM: Anon.
!!!OTL: Hand Game Guessing Song (d)
!!!ODT: <1920//
!!!MPN: Horse Chief [Spotted Horse Chief]
!!!MLC: Pawnee, Oklahoma, United States of America
!! Song was recorded either 1919 or 1920.
!!!AGN: monody
!!!AMT: irregular
!!!RWG: Transcribed pitches, durations, and meters are only approximate.
!! Drum not recorded
**kern
*ICvox
*Imale
*clefF4
*k[b-]
*M2/4
*MM96
*[A,A]
*>A
=!|:1
8G
8G
8B-
8A
*M3/4
=2
8G
8G
8G
8r
8G
8G
=3
4c
8B-
8B-
8B-
8G
*M2/4
=4
8B-
8B-
8B-
8G
*M3/4
=5
8F
8F
8F
8D
8F
8F
=6
4G
8F
8F
8F
8D
*M2/4
=7
8F
8F
8F
8D
=8
8C
8C
8C
8r
=9
8C
8C
4C
=10
8C
8C
8C
8r
=11
8F
8F
8F
8D
=12
8D
8D
8D
16C
16r
=13
8D
8D
8F
8D
=14
8C
8C
8C
8r
=15
8C
8C
4C
=16
8C
8C
8C
8r
==:|!
*-
!!!HAO: [no description]
!!!HTX: [no free translation]
!!!CNT: Pawnee
!!!TXO: Pawnee
!!!OCY: United States
!!!OCL: Frances Densmore
!!!YOR: Frances Densmore, "Pawnee Music"
!!!YOR: Bulletin 93, page 73, No. 43
!!!PPR: Smithsonian Institution, Bureau of American Ethnology
!!!PPR: Government Printing Office
!!!PDT: 1926
!!!PPP: Washington, DC, United States of America
!!!YEC: Electronic Copyright 2000 David Huron
!!!YER: September 2000
!!!YEN: United States of America
!!!ENC: David Huron
!!!RDT: September 3, 2000
!!!EEV: Release 1.0
!!!AIN: vox
